img/logo.svg

<svg width="141" height="25" viewBox="0 0 141 25" fill="none" xmlns="http://www.w3.org/2000/svg">
<path opacity="0.8" d="M45.66 16.36H50.14V19H42.24V4.96H45.66V16.36ZM51.0913 13.4C51.0913 12.2533 51.3046 11.2467 51.7313 10.38C52.1713 9.51333 52.7646 8.84667 53.5113 8.38C54.2579 7.91333 55.0913 7.68 56.0113 7.68C56.7979 7.68 57.4846 7.84 58.0713 8.16C58.6713 8.48 59.1313 8.9 59.4513 9.42V7.84H62.8713V19H59.4513V17.42C59.1179 17.94 58.6513 18.36 58.0513 18.68C57.4646 19 56.7779 19.16 55.9913 19.16C55.0846 19.16 54.2579 18.9267 53.5113 18.46C52.7646 17.98 52.1713 17.3067 51.7313 16.44C51.3046 15.56 51.0913 14.5467 51.0913 13.4ZM59.4513 13.42C59.4513 12.5667 59.2113 11.8933 58.7313 11.4C58.2646 10.9067 57.6913 10.66 57.0113 10.66C56.3313 10.66 55.7513 10.9067 55.2713 11.4C54.8046 11.88 54.5713 12.5467 54.5713 13.4C54.5713 14.2533 54.8046 14.9333 55.2713 15.44C55.7513 15.9333 56.3313 16.18 57.0113 16.18C57.6913 16.18 58.2646 15.9333 58.7313 15.44C59.2113 14.9467 59.4513 14.2733 59.4513 13.42ZM72.1455 7.72C73.4521 7.72 74.4921 8.14667 75.2655 9C76.0521 9.84 76.4455 11 76.4455 12.48V19H73.0455V12.94C73.0455 12.1933 72.8521 11.6133 72.4655 11.2C72.0788 10.7867 71.5588 10.58 70.9055 10.58C70.2521 10.58 69.7321 10.7867 69.3455 11.2C68.9588 11.6133 68.7655 12.1933 68.7655 12.94V19H65.3455V7.84H68.7655V9.32C69.1121 8.82667 69.5788 8.44 70.1655 8.16C70.7521 7.86667 71.4121 7.72 72.1455 7.72ZM78.142 13.4C78.142 12.2533 78.3554 11.2467 78.782 10.38C79.222 9.51333 79.8154 8.84667 80.562 8.38C81.3087 7.91333 82.142 7.68 83.062 7.68C83.7954 7.68 84.462 7.83333 85.062 8.14C85.6754 8.44667 86.1554 8.86 86.502 9.38V4.2H89.922V19H86.502V17.4C86.182 17.9333 85.722 18.36 85.122 18.68C84.5354 19 83.8487 19.16 83.062 19.16C82.142 19.16 81.3087 18.9267 80.562 18.46C79.8154 17.98 79.222 17.3067 78.782 16.44C78.3554 15.56 78.142 14.5467 78.142 13.4ZM86.502 13.42C86.502 12.5667 86.262 11.8933 85.782 11.4C85.3154 10.9067 84.742 10.66 84.062 10.66C83.382 10.66 82.802 10.9067 82.322 11.4C81.8554 11.88 81.622 12.5467 81.622 13.4C81.622 14.2533 81.8554 14.9333 82.322 15.44C82.802 15.9333 83.382 16.18 84.062 16.18C84.742 16.18 85.3154 15.9333 85.782 15.44C86.262 14.9467 86.502 14.2733 86.502 13.42ZM96.6363 7.68C97.4229 7.68 98.1096 7.84 98.6963 8.16C99.2963 8.48 99.7563 8.9 100.076 9.42V7.84H103.496V18.98C103.496 20.0067 103.29 20.9333 102.876 21.76C102.476 22.6 101.856 23.2667 101.016 23.76C100.19 24.2533 99.1563 24.5 97.9163 24.5C96.2629 24.5 94.9229 24.1067 93.8963 23.32C92.8696 22.5467 92.2829 21.4933 92.1363 20.16H95.5163C95.6229 20.5867 95.8763 20.92 96.2763 21.16C96.6763 21.4133 97.1696 21.54 97.7563 21.54C98.4629 21.54 99.0229 21.3333 99.4363 20.92C99.8629 20.52 100.076 19.8733 100.076 18.98V17.4C99.7429 17.92 99.2829 18.3467 98.6963 18.68C98.1096 19 97.4229 19.16 96.6363 19.16C95.7163 19.16 94.8829 18.9267 94.1363 18.46C93.3896 17.98 92.7963 17.3067 92.3563 16.44C91.9296 15.56 91.7163 14.5467 91.7163 13.4C91.7163 12.2533 91.9296 11.2467 92.3563 10.38C92.7963 9.51333 93.3896 8.84667 94.1363 8.38C94.8829 7.91333 95.7163 7.68 96.6363 7.68ZM100.076 13.42C100.076 12.5667 99.8363 11.8933 99.3563 11.4C98.8896 10.9067 98.3163 10.66 97.6363 10.66C96.9563 10.66 96.3763 10.9067 95.8963 11.4C95.4296 11.88 95.1963 12.5467 95.1963 13.4C95.1963 14.2533 95.4296 14.9333 95.8963 15.44C96.3763 15.9333 96.9563 16.18 97.6363 16.18C98.3163 16.18 98.8896 15.9333 99.3563 15.44C99.8363 14.9467 100.076 14.2733 100.076 13.42ZM116.99 7.84V19H113.57V17.48C113.224 17.9733 112.75 18.3733 112.15 18.68C111.564 18.9733 110.91 19.12 110.19 19.12C109.337 19.12 108.584 18.9333 107.93 18.56C107.277 18.1733 106.77 17.62 106.41 16.9C106.05 16.18 105.87 15.3333 105.87 14.36V7.84H109.27V13.9C109.27 14.6467 109.464 15.2267 109.85 15.64C110.237 16.0533 110.757 16.26 111.41 16.26C112.077 16.26 112.604 16.0533 112.99 15.64C113.377 15.2267 113.57 14.6467 113.57 13.9V7.84H116.99ZM122.867 9.7C123.267 9.08667 123.767 8.60667 124.367 8.26C124.967 7.9 125.634 7.72 126.367 7.72V11.34H125.427C124.574 11.34 123.934 11.5267 123.507 11.9C123.08 12.26 122.867 12.9 122.867 13.82V19H119.447V7.84H122.867V9.7ZM139.022 7.84V19H135.602V17.48C135.255 17.9733 134.782 18.3733 134.182 18.68C133.595 18.9733 132.942 19.12 132.222 19.12C131.368 19.12 130.615 18.9333 129.962 18.56C129.308 18.1733 128.802 17.62 128.442 16.9C128.082 16.18 127.902 15.3333 127.902 14.36V7.84H131.302V13.9C131.302 14.6467 131.495 15.2267 131.882 15.64C132.268 16.0533 132.788 16.26 133.442 16.26C134.108 16.26 134.635 16.0533 135.022 15.64C135.408 15.2267 135.602 14.6467 135.602 13.9V7.84H139.022Z" fill="white"/>
<path fill-rule="evenodd" clip-rule="evenodd" d="M28.433 6.28764C28.4376 6.36938 28.4316 6.45238 28.4112 6.53582L26.5855 13.8681C26.4934 14.2371 26.1637 14.4973 25.7846 14.4995L14.8307 14.5549C14.8293 14.5549 14.828 14.5549 14.8265 14.5549H3.87255C3.49143 14.5549 3.15939 14.2939 3.0674 13.9227L1.24172 6.56247C1.22064 6.47731 1.21462 6.39173 1.21993 6.30787C0.513655 6.08467 0 5.42106 0 4.63918C0 3.67369 0.781697 2.88879 1.74264 2.88879C2.70359 2.88879 3.48529 3.67369 3.48529 4.63918C3.48529 5.18236 3.23731 5.66836 2.84905 5.99004L5.13475 8.30212C5.7125 8.88657 6.51407 9.22203 7.33413 9.22203C8.30388 9.22203 9.22841 8.75929 9.81063 7.98471L13.5671 2.98684C13.2515 2.67031 13.0561 2.23292 13.0561 1.7504C13.0561 0.785303 13.8378 -3.19998e-07 14.7987 -3.19998e-07C15.7597 -3.19998e-07 16.5414 0.785303 16.5414 1.7504C16.5414 2.21832 16.3564 2.64279 16.0573 2.95717C16.0583 2.95847 16.0596 2.95976 16.0605 2.96104L19.7897 7.97268C20.3718 8.75456 21.2996 9.22203 22.2721 9.22203C23.0997 9.22203 23.878 8.8982 24.4632 8.31072L26.7633 6.00079C26.3669 5.67953 26.1122 5.18926 26.1122 4.63918C26.1122 3.67369 26.894 2.88879 27.8549 2.88879C28.8158 2.88879 29.5976 3.67369 29.5976 4.63918C29.5976 5.39998 29.1101 6.04767 28.433 6.28764ZM26.4073 17.1655C26.4073 16.7057 26.0358 16.3324 25.5775 16.3324H4.11231C3.65401 16.3324 3.28242 16.7057 3.28242 17.1655V19.1653C3.28242 19.6259 3.65401 19.9988 4.11231 19.9988H25.5775C26.0358 19.9988 26.4073 19.6259 26.4073 19.1653V17.1655Z" fill="white"/>
</svg>

<svg width="141" height="25" fill="none" xmlns="http://www.w3.org/2000/svg"><path opacity=".8" d="M45.66 16.36h4.48V19h-7.9V4.96h3.42v11.4Zm5.431-2.96c0-1.147.214-2.153.64-3.02.44-.867 1.034-1.533 1.78-2a4.62 4.62 0 0 1 2.5-.7c.787 0 1.474.16 2.06.48.6.32 1.06.74 1.38 1.26V7.84h3.42V19h-3.42v-1.58c-.333.52-.8.94-1.4 1.26-.586.32-1.273.48-2.06.48a4.585 4.585 0 0 1-2.48-.7c-.746-.48-1.34-1.153-1.78-2.02-.426-.88-.64-1.893-.64-3.04Zm8.36.02c0-.853-.24-1.527-.72-2.02a2.275 2.275 0 0 0-1.72-.74c-.68 0-1.26.247-1.74.74-.466.48-.7 1.147-.7 2s.234 1.533.7 2.04c.48.493 1.06.74 1.74.74.68 0 1.254-.247 1.72-.74.48-.493.72-1.167.72-2.02Zm12.694-5.7c1.307 0 2.347.427 3.12 1.28.787.84 1.18 2 1.18 3.48V19h-3.4v-6.06c0-.747-.193-1.327-.58-1.74-.386-.413-.906-.62-1.56-.62-.653 0-1.173.207-1.56.62-.386.413-.58.993-.58 1.74V19h-3.42V7.84h3.42v1.48a3.53 3.53 0 0 1 1.4-1.16c.587-.293 1.247-.44 1.98-.44Zm5.997 5.68c0-1.147.213-2.153.64-3.02.44-.867 1.033-1.533 1.78-2a4.62 4.62 0 0 1 2.5-.7c.733 0 1.4.153 2 .46.613.307 1.093.72 1.44 1.24V4.2h3.42V19h-3.42v-1.6c-.32.533-.78.96-1.38 1.28-.587.32-1.273.48-2.06.48a4.62 4.62 0 0 1-2.5-.7c-.747-.48-1.34-1.153-1.78-2.02-.427-.88-.64-1.893-.64-3.04Zm8.36.02c0-.853-.24-1.527-.72-2.02a2.275 2.275 0 0 0-1.72-.74c-.68 0-1.26.247-1.74.74-.467.48-.7 1.147-.7 2s.233 1.533.7 2.04c.48.493 1.06.74 1.74.74.68 0 1.253-.247 1.72-.74.48-.493.72-1.167.72-2.02Zm10.134-5.74c.787 0 1.474.16 2.06.48.6.32 1.06.74 1.38 1.26V7.84h3.42v11.14c0 1.027-.206 1.953-.62 2.78-.4.84-1.02 1.507-1.86 2-.826.493-1.86.74-3.1.74-1.653 0-2.993-.393-4.02-1.18-1.026-.773-1.613-1.827-1.76-3.16h3.38c.107.427.36.76.76 1 .4.253.894.38 1.48.38.707 0 1.267-.207 1.68-.62.427-.4.64-1.047.64-1.94V17.4c-.333.52-.793.947-1.38 1.28-.586.32-1.273.48-2.06.48a4.62 4.62 0 0 1-2.5-.7c-.746-.48-1.34-1.153-1.78-2.02-.426-.88-.64-1.893-.64-3.04s.214-2.153.64-3.02c.44-.867 1.034-1.533 1.78-2a4.62 4.62 0 0 1 2.5-.7Zm3.44 5.74c0-.853-.24-1.527-.72-2.02a2.275 2.275 0 0 0-1.72-.74c-.68 0-1.26.247-1.74.74-.466.48-.7 1.147-.7 2s.234 1.533.7 2.04c.48.493 1.06.74 1.74.74.68 0 1.254-.247 1.72-.74.48-.493.72-1.167.72-2.02Zm16.914-5.58V19h-3.42v-1.52c-.346.493-.82.893-1.42 1.2a4.32 4.32 0 0 1-1.96.44c-.853 0-1.606-.187-2.26-.56-.653-.387-1.16-.94-1.52-1.66-.36-.72-.54-1.567-.54-2.54V7.84h3.4v6.06c0 .747.194 1.327.58 1.74.387.413.907.62 1.56.62.667 0 1.194-.207 1.58-.62.387-.413.58-.993.58-1.74V7.84h3.42Zm5.877 1.86c.4-.613.9-1.093 1.5-1.44.6-.36 1.267-.54 2-.54v3.62h-.94c-.853 0-1.493.187-1.92.56-.427.36-.64 1-.64 1.92V19h-3.42V7.84h3.42V9.7Zm16.155-1.86V19h-3.42v-1.52c-.347.493-.82.893-1.42 1.2-.587.293-1.24.44-1.96.44-.854 0-1.607-.187-2.26-.56-.654-.387-1.16-.94-1.52-1.66-.36-.72-.54-1.567-.54-2.54V7.84h3.4v6.06c0 .747.193 1.327.58 1.74.386.413.906.62 1.56.62.666 0 1.193-.207 1.58-.62.386-.413.58-.993.58-1.74V7.84h3.42Z" fill="#fff"/><path fill-rule="evenodd" clip-rule="evenodd" d="M28.433 6.288a.84.84 0 0 1-.022.248l-1.826 7.332a.832.832 0 0 1-.8.631l-10.954.056H3.873a.83.83 0 0 1-.806-.632l-1.825-7.36a.836.836 0 0 1-.022-.255 1.751 1.751 0 0 1 .523-3.42c.96 0 1.742.786 1.742 1.751A1.75 1.75 0 0 1 2.85 5.99l2.286 2.312c.578.585 1.38.92 2.2.92.969 0 1.893-.463 2.476-1.237l3.756-4.998A1.749 1.749 0 0 1 14.8 0a1.749 1.749 0 0 1 1.258 2.957l.004.004 3.729 5.012a3.11 3.11 0 0 0 2.482 1.249c.828 0 1.606-.324 2.191-.911l2.3-2.31a1.748 1.748 0 0 1 1.092-3.112 1.748 1.748 0 0 1 .578 3.399Zm-2.026 10.878a.832.832 0 0 0-.83-.834H4.113a.832.832 0 0 0-.83.834v2c0 .46.372.833.83.833h21.465c.459 0 .83-.373.83-.834v-2Z" fill="#fff"/></svg>
